X: 1
T: Polska efter Carl Aron Hakberg
O: V\"asterg\"otland, Sweden
R: g\aangl\aat, march
S: Fiddle Hell Online 2020 workshop by Anna Lindblad
M: 3/4
L: 1/16
K: D
"^A"|::: F3A G2E2 E2D2 |[1 c2Ad cBAG F2D2 :|[2 c2Ac e2d2 d4 :|
[M:2/4]
"^B"|::: A2ff f2ef | gfef d2d2 [M:3/4]|[1 efed edcB A2A2 :|2 efed c2d2 d4 :|
